X:138 
T:Mister Jones' Kerry Reel 
S:Donnelly < W.Jones
F:file ID: cre.4/138mr_jones
B:CRE4.112 (RÃÂÃÂÃÂÃÂ­l ChiarraÃÂÃÂÃÂÃÂ­)
N:I added the source's name to distinguish this from all the other 
'Kerry Reels'!
Q:180
L:1/8
M:4/4
R:reel
K:G
(3DEF|GBAG FGAB|dBcA BEEF|GBAG FGAc|BcAF G2 (3DEF|
GBAG FGAc|BdAc BEEF|G2 BG FGAc|BdAF G2 ||
ef|g2g/a/g f2f/g/f|efag fddf|g2 g2 a2 a2|bgef g2 de|
gabg fgag|egag fdde|gBB/A/B eAA/G/A|BdcA G4|]

%%%

